!!!!SEGMENT: pl-wumfc--n53446--001-008_moniuszko-stanislaw--hrabina-no-7a-final-duet-pozniej-tercet.krn
!!!cenid: 18xx:4095
!!!COM: Moniuszko, Stanisław
!!!COM-rismID: pe30008351
!!!CDT: 1819/05/05-1872/06/04
!!!CNT: Polish
!!!OPR: Hrabina
!!!OTL: No. 7a. Finał. Duet później Tercet
!!!OMV: 008
!!!PDT:
!!!AGN:
!!!SMS-siglum: PL-Wumfc
!!!SMS-shelfmark: N53446
!!!SMS-shelfwork: 001-008 M
!!!SMS-variant:
!!!SMS-altvar:
!!!NIFC-rismSourceID: 1001165649
!!!NIFC-rismChildID: 1001165649
!!!NIFC-islandoraID: pl-wumfc:6884
!!!URL-pdf-islandora: https://repozytorium.nifc.pl/islandora/object/pl-wumfc%3A6884/datastream/PDF/view
!!!URL-scan: https://polish.musicsources.pl/pl/lokalizacje/galeria/druki-muzyczne/12579 @EN{Scan on Polish Music Sources Website} @PL{Skany w portalu Dziedzictwo Muzyki Polskiej w otwartym dostępie}
!!!ONB-nifc:
!!!AIN: 1 piano
!!!key: G
**kern	**kern	**text	**dynam
*part1	*part1	*part1	*part1
*staff2	*staff1	*staff1	*
*I"[Piano.]	*I"[Piano.]	*	*
*Ipiano	*Ipiano	*	*
*ICklav	*ICklav	*	*
*clefF4	*clefG2	*	*
*k[f#]	*k[f#]	*	*
*G:	*G:	*	*
*M4/4	*M4/4	*	*
*met(c)	*met(c)	*	*
=1	=1	=1	=1
!!LO:TX:B:a:t=Allegro.
!	!LO:TX:t=P:problem:cały tekst zapisany ponad pięciolinią	!	!
8AL 8F# 8D 8C^^\	8ff#L 8dd 8a^^\	.	f
8AJ 8F# 8D 8C^^\	8aaJ 8dd 8a^^\	.	.
8r	8r	.	.
8qqE/	8qqe/	.	.
(16D/LL	(16d/LL	.	.
16C#X/JJ	16c#X/JJ	.	.
16D\LL	16d/LL	.	.
16E\	16e/	.	.
16F#\	16f#/	.	.
16G\JJ	16g/JJ	.	.
16A\LL	16a/LL	.	.
16B\	16b/	.	.
16cn\	16ccn/	.	.
16c#X\JJ)	16cc#X/JJ)	.	.
=2	=2	=2	=2
8GL 8D 8BB^^\	8ddL 8d^^\	.	.
8GJ 8D 8BB^^\	8ggJ 8dd 8g^^\	.	.
8r	8r	.	.
(16B\LL	(16b\LL	.	.
16c\JJ	16cc\JJ	.	.
16e\LL	16ee\LL	.	.
16d\)	16dd\)	.	.
(16G\	(16g\	.	.
16A\JJ	16a\JJ	.	.
16c\LL	16cc/LL	.	.
16B\	16b/	.	.
16G\	16g/	.	.
16D\JJ)	16d/JJ)	.	.
!!LO:LB:g=original
=3	=3	=3	=3
16BB\LL	(16B/LL	.	.
16D\	16d/	.	.
16G\	16g/	.	.
16F#\JJ	16f#/JJ	.	.
16E\LL	16e/LL	.	.
16G\	16g/	.	.
16B\	16b/	.	.
16A\JJ	16a/JJ	.	.
16G\LL	16g\LL	.	.
16B\	16b\	.	.
16d\	16dd\	.	.
16c\JJ	16cc\JJ	.	.
16B\LL	16b\LL	.	.
16d\	16dd\	.	.
16g\	16gg\	.	.
16b\JJ	16bb\JJ	.	.
=4	=4	=4	=4
*	*^	*	*
8d\	8ddd/)	8dd\	.	p
8dL 8F# 8D'\	8dddL 8bb 8dd'\	8ryy	.	.
8d 8G 8E'\	8ccc#X 8aa#X 8dd'\	4ryy	.	.
8dJ 8A 8F#'\	8cccnJ 8aan 8dd'\	.	.	.
8dL 8B 8G'\	8bbL 8gg 8dd'\	2ryy	.	.
8c 8A'\	8aa 8ff# 8dd'\	.	.	.
8d 8B'\	8gg 8dd'\	.	.	.
8c'\J	8eeJ 8cc'\	.	.	.
*	*v	*v	*	*
=5	=5	=5	=5
!	!LO:TX:i:a:t=molto leggiero	!	!
8d'\	8dd 8b'\	.	.
8r	(16b\LL	.	.
.	16bb\JJ	.	.
*clefG2	*	*	*
8b 8g 8e/	8gg 8ee'\)	.	.
8r	(16g\LL	.	.
.	16gg\JJ	.	.
8a 8e 8c/	8ee 8cc'\)	.	.
8r	(16e/LL	.	.
.	16cc/JJ	.	.
*clefF4	*	*	*
8c 8D\	8a 8f#'/)	.	.
8r	(16d/LL	.	.
.	16dd/JJ	.	.
!!LO:LB:g=original
=6	=6	=6	=6
8B 8G\	8g/)	.	.
(24e\LL	(24ee\LL	.	.
24d\	24dd\	.	.
24B\JJ	24b\JJ	.	.
8G\)	8g/)	.	.
(24E/LL	(24e/LL	.	.
24D/	24d/	.	.
24BB/JJ	24B/JJ	.	.
8GG/)	8G/)	.	.
8r	8dd\L	I	.
4r	8cc#X\	des-	.
.	8dd\J	-pe-	.
=7	=7	=7	=7
*	*^	*	*
!!LO:TX:B:a:t=Lento.
(<[1c [1A 1D	(2ff#^/	1f#	-ru-	>
.	8ee'/L	.	-je	.
.	8ccn'/	.	i	.
.	8a'/	.	wą-	.
.	8f#'/J	.	-tpi	]
=8	=8	=8	=8	=8
!!LO:TX:B:a:t=Allegro.
4.c] 4.A] 4.F#\)	4.d/)	4ryy	znów!	.
.	.	4ryy	.	.
8r	8r	.	.	.
4r	8.r	4ryy	.	.
.	16d'/KL	.	.	.
(4G#X (4BB\	(8.dd^/	(4fn\	.	.
.	32cc/LL	.	.	.
.	32b/JJJ	.	.	.
!!LO:LB:g=original
=9	=9	=9	=9	=9
*^	*	*	*	*
8A 8C\))	4ryy	8a/L)	8e\)	.	.
8r	.	16r	8r	.	.
.	.	[16gn/Jk	.	.	.
(4A#X (4C#X\	4ryy	4g\_<	(>8.gg^>/L	więc	.
.	.	.	32ff#/LL	.	.
.	.	.	32ee/JJJ	.	.
8B 8D\))	4ryy	8g\]	8dd/)	chyba	.
8r	.	16r	8ryy	.	.
.	.	16ee/KL	.	twarsz	.
8.An/L	4c 4D\	8.f#/	4ryy	za-	.
16F#/Jk	.	16a/Jk	.	-sło-	.
*v	*v	*	*	*	*
*	*v	*v	*	*
=10	=10	=10	=10
8G'/L	(<16g/LL	-nię,	.
.	16B/	.	.
8D'/	16d/	.	.
.	16g/JJ	.	.
8BB'/	16b\LL	.	.
.	16dd\	.	.
8GG'/J	16ee\	.	.
.	16dd\JJ	.	.
8D'\	8dd 8a 8f#'/)	.	.
8r	8dd'\L	za-	.
4r	8cc#X'\	-ka-	.
.	8dd'\J	-żę	.
=11	=11	=11	=11
2d 2G#X^\	2ffn 2b^\	spój-	.
8e\	8ee\L	-rzeń	.
8r	16r	.	.
.	16dd\Jk	i	.
4r	8cc'\L	grze-	.
.	8b'\J	-cznych	.
!!LO:LB:g=original
=12	=12	=12	=12
*	*^	*	*
8.r	8a/L	2ryy	słów,	.
.	16r	.	.	.
16e 16d\	16g#X/Jk	.	.	.
8eL 8c\	8aL 8f#/	.	.	.
16r	16r	.	.	.
16eJk 16d 16A\	16bJk 16g#/	.	.	.
8e 8c 8A\	8ccL 8a/	4ryy	.	.
8r	16r	.	.	.
.	16a/Jk	.	.	.
(4B-X 4E (4C#X^\	8.gg#y/L	(4g#^\	.	.
.	32ff#/LL	.	.	.
.	32ee/JJJ	.	.	.
=13	=13	=13	=13	=13
8A 8D\))	8dd/	8f#\)	.	.
8r	16r	8ryy	.	.
.	16d/	.	.	.
(4fn 4B (4G#X\	(8.dd^/L	4ryy	.	.
.	32cc/LL	.	ko-	.
.	32b/JJJ	.	-ze-	.
8e 8c 8A\))	8a/)	4ryy	-ryi	.
8r	16r	.	.	.
.	16cc/	.	w	.
4c 4A 4D\	8f#X/L	(4f#\	mo-	.
.	8qqee/	.	.	.
.	8dd/J	.	-im	.
=14	=14	=14	=14	=14
*^	*	*	*	*
*ped	*	*	*	*	*
8r	1GG	4g/	(4g\)	salonie?	.
(8D/L	.	.	.	.	.
8G/	.	4r	8B\L	.	.
8D/J	.	.	8d\J)	.	.
*Xped	*	*	*	*	*
!	!	!LO:TX:i:a:t=cantabile	!	!	!
8G/L	.	(4b/	8B\L	Mo-	.
8D/	.	.	8d\	.	.
8G/	.	8a#X/L	8g\	-jaż	.
8D/J)	.	8b/J	8d\J	to	.
*	*	*v	*v	*	*
!!LO:PB:g=original
=15	=15	=15	=15	=15
*ped	*	*	*	*
8r	1GG	4.ee\	wi-	>
(8D/L	.	.	.	.
8G/	.	.	.	.
8B/J	.	8dd\	-na,	]
8A/L	.	8cc/L	że	.
8E/	.	8a/	mu	.
8c/	.	8e/	.	.
8E/J)	.	8f#/J)	w so-	.
=16	=16	=16	=16	=16
*	*	*^	*	*
8r	1GG	4g/	2B\	-sie-	.
(8D/L	.	.	.	.	.
8E#X/	.	4g#X/	.	-cie	.
8D/J	.	.	.	.	.
8F#/L	.	4a/	2d\	jeszcze	.
8D/	.	.	.	.	.
8F#/	.	4a#X/	.	tur-	.
8D/J)	.	.	.	.	.
=17	=17	=17	=17	=17	=17
8r	2GG\	8b/L	[2B\	-niu-	.
8D/L	.	8g/	.	.	.
8G/	.	8e/	.	ry	.
8D/J	.	8g/J	.	i	.
4G/	4G\	4b/	8B\L]	ma-	.
.	.	.	8d\	.	.
4B/	4E\	4ee/	8g\	-njer	.
.	.	.	8b\J	.	.
*v	*v	*	*	*	*
!!LO:LB:g=original
=18	=18	=18	=18	=18
(8BB\L	[2dd:/	4f#: 4d:\	brak?	.
8F#\	.	.	.	.
8B\	.	4r	.	.
8d\J	.	.	.	.
8f#\)	8dd/]	2ryy	.	<
!	!LO:TX:t=P:problem:tekst francuski wpisany kursywą	!	!	!
8d'\L	8dd'/L	.	Ah	.
8c#X'\	8cc#X'/	.	grand	.
8d'\J	8dd'/J	.	dom-	[
=19	=19	=19	=19	=19
!!LO:TX:B:a:t=Lento.
(<[1cn [1A 1D	(4.ff#/	1f#	-mage,	sf >
.	8ee/	.	.	.
.	8.dd/L	.	bo	.
.	16ccn/K	.	.	.
.	8a/	.	do-	.
.	8f#/J	.	-bry	]
=20	=20	=20	=20	=20
!!LO:TX:B:a:t=Allegro.
8c] 8A] 8F#\)	8d/)	4ryy	tak!	.
8r	16r	.	.	.
.	16d/	.	.	pp
(4B 4G#X\	(8.dd/L	(4fn\	.	.
.	32cc/LL	.	.	.
.	32b/JJJ	.	.	.
8c 8A\)	8a/L)	8e\)	.	.
8r	16r	8ryy	.	.
.	16gn/Jk	.	.	.
(4c#X 4E\	8.gg/L	(4a#X\	.	.
.	32ff#X/LL	.	.	.
.	32ee/JJJ	.	.	.
*	*v	*v	*	*
!!LO:LB:g=original
=21	=21	=21	=21
8d 8D\)	8dd\ 8b\)	.	.
16r	16r	.	.
*clefG2	*	*	*
(16d/	(16dd\	.	.
8g/L)	8gg\L)	.	.
16r	16r	.	.
(16b/Jk	(16bb\Jk	.	.
8dd\)	8ddd\)	.	.
8r	16r	.	.
.	(16ee\	Szlachetny	.
*clefF4	*	*	*
(4c 4A 4D\	8.f#/L)	.	.
.	(16a/Jk	.	.
=22	=22	=22	=22
8B 8G\)	8g/)	tak!	.
16r	16r	.	.
16d 16G\	16gg 16b 16g\	.	p
4d 4G\	4gg 4b 4g\	.	.
2r;	8r;	.	.
.	8b\	.	.
.	8b\L	Monsieur	.
.	16b\L	Casimir!	.
.	16b\JJ	.	.
=23	=23	=23	=23
8.r	(16bLL 16g/	.	fp
.	16e/	.	.
.	16b 16g/	.	.
16EE/	16e/JJ	.	.
8.E^\L	16bLL 16g/	.	.
.	16e/	.	.
.	16b 16g/	.	.
16D#X\Jk	16e/JJ	.	.
8E\	16bLL 16g/	Kaz:Ach	.
.	16e/)	.	.
8r	(16b 16g/	.	.
.	16e/JJ	.	.
4r	16bLL 16g/	sa-	.
.	16e/	.	.
.	16b 16g/	-ma	.
.	16e/JJ)	.	.
!!LO:LB:g=original
=24	=24	=24	=24
8.r	(16ccLL 16a 16f#/	przecie,	.
.	16e/	.	.
.	16cc 16a 16f#/	.	.
16EE/	16e/JJ	.	.
8.E\L	16ccLL 16a 16f#/	.	.
.	16e/	.	.
.	16cc 16a 16f#/	nie	.
16D#X\Jk	16e/JJ	.	.
8E\	16ccLL 16a/	w tym	.
.	16e/)	.	.
8r	(16cc 16a/	wy-	.
.	16e/JJ	.	.
4r	16b/LL	-kwin-	.
.	16e/	.	.
.	16a/	-tnym	.
.	16e/JJ)	.	.
=25	=25	=25	=25
8.r	(16eeLL 16cc 16a/	tłu-	.
.	16f#/	.	.
.	16ee 16cc 16a/	.	.
16DD/	16f#/JJ	.	.
8.D/L	16eeLL 16cc 16a/	.	.
.	16f#/	.	.
.	16ee 16cc 16a/	.	.
16C#X/Jk	16f#/JJ	.	.
8D\	16ddLL 16a/	-mie	.
.	16f#/)	.	.
8r	(16dd 16a/	co	.
.	16f#/JJ	.	.
4r	16a/LL	schle-	.
.	16f#/	.	.
.	16ccn 16a/	-biać	.
.	16f#/JJ)	.	.
!!LO:LB:g=original
=26	=26	=26	=26
8.r	(16bLL 16fn/	umie	.
.	16d/	.	.
.	16b 16f/	.	.
16GG/	16d/JJ	.	.
8.G\L	16gLL 16f/	.	.
.	16d/	.	.
.	16a 16f/	.	.
16F#X\Jk	16d/JJ	.	.
8G\	16bLL 16f/	a	.
.	16d/)	.	.
8r	(16b 16f/	czuć	.
.	16d/JJ	.	.
4r	16aLL 16f/	.	.
.	16d/	.	.
.	16g 16f/	nie	.
.	16d/JJ)	.	.
=27	=27	=27	=27
!	!LO:TX:i:b:t=scherzando	!	!
16CC'/LL	4cc 4e/	umie.	.
16GG'/	.	.	.
16C'/	.	.	.
16E'/JJ	.	.	.
8G\	8r	.	.
8r	8g 8e 8c'/	.	.
16CC/LL	8aL 8e 8c'/	.	.
16GG/	.	.	.
16C/	8g 8e 8c'/	.	.
16E/JJ	.	.	.
8G\	8f#X 8e 8c'/	.	.
8r	8gJ 8e 8c'/	.	.
=28	=28	=28	=28
16CC/LL	4.ee 4.cc 4.g 4.e/	.	.
16GG/	.	.	.
16C/	.	.	.
16E/JJ	.	.	.
8G\	.	.	.
8r	8ee 8cc 8g'\	.	.
16CC/LL	8ffnL 8cc 8g'\	.	.
16GG/	.	.	.
16C/	8ee 8cc 8g'\	.	.
16E/JJ	.	.	.
8G\	8dd#X 8cc 8g'\	.	.
8r	8eeJ 8cc 8g'\	.	.
!!LO:PB:g=original
=29	=29	=29	=29
16CC/LL	4.gg 4.dd 4.b 4.fn\	.	.
16GG/	.	.	.
16D/	.	.	.
16Fn/JJ	.	.	.
8G\	.	.	.
8r	8gg 8ffn 8dd 8b'\	Hra:	.
16CC/LL	8aaL 8ff 8dd 8b'\	Pro-	.
16GG/	.	.	.
16D/	8gg 8ff 8dd 8b'\	.	.
16F/JJ	.	.	.
8G\	8ff#X 8dd 8b'\	-szę	.
8r	8ggJ 8ffn 8dd 8b'\	nie	.
=30	=30	=30	=30
16CC/LL	4.bb 4.gg 4.ffn 4.b\	są-	.
16GG/	.	.	.
16D/	.	.	.
16Fn/JJ	.	.	.
8G\	.	.	.
8r	8gg 8ff 8b'\	dzić	.
16CC/LL	8gg#XL 8ff 8b'\	nas	.
16GG/	.	.	.
16D/	8aa 8ff 8b'\	.	.
16F/JJ	.	.	.
8G\	8aa#X 8ff 8dd'\	tak	.
8r	8bbJ 8ff 8dd'\	su-	.
=31	=31	=31	=31
16CC/LL	4ccc 4ee 4cc\	-rowo	.
16GG/	.	.	.
16C/	.	.	.
16E/JJ	.	.	.
8G\	8r	.	.
8r	8g 8e 8c'/	a	.
16CC/LL	8aL 8e 8c'/	nie-	.
16GG/	.	.	.
16C/	8g 8e 8c'/	.	.
16E/JJ	.	.	.
8G\	8f#X 8e 8c'/	.	.
8r	8gJ 8e 8c'/	-co	.
!!LO:LB:g=original
=32	=32	=32	=32
16CC/LL	4.ee 4.cc 4.e/	ser-	.
16GG/	.	.	.
16C/	.	.	.
16E/JJ	.	.	.
8G\	.	.	.
8r	8ee 8cc 8g'\	-ca	.
16CC/LL	8ffnL 8cc 8g'\	przyznać	.
16GG/	.	.	.
16C/	8ee 8cc 8g'\	.	.
16E/JJ	.	.	.
8G\	8dd#X 8cc 8g'\	.	.
8r	8eeJ 8cc 8g'\	i	.
=33	=33	=33	=33
16CC/LL	4.gg 4.dd 4.b 4.fn\	nam.	.
16GG/	.	.	.
16D/	.	.	.
16Fn/JJ	.	.	.
8G\	.	.	.
8r	8gg 8ffn 8dd 8b'\	Kaz:Ach	.
16CC/LL	8aaL 8ff 8dd 8b'\	da-	.
16GG/	.	.	.
16D/	8gg 8ff 8dd 8b'\	.	.
16F/JJ	.	.	.
8G\	8ff#X 8dd 8b'\	-ruj	.
8r	8ggJ 8ffn 8dd 8b'\	mi	.
=34	=34	=34	=34
16CC/LL	4.bb 4.gg 4.ffn 4.b\	Pa-	.
16GG/	.	.	.
16D/	.	.	.
16Fn/JJ	.	.	.
8G\	.	.	.
8r	8gg 8ff 8b'\	-ni	<
16CC/LL	8aaL 8ff 8b'\	skwa-	.
16GG/	.	.	.
16D/	8bb 8ff 8dd'\	.	.
16F/JJ	.	.	.
8G\	8ccc 8ff 8dd'\	-pliwe	.
8r	8dddJ 8ff 8dd'\	.	[[
!!LO:LB:g=original
=35	=35	=35	=35
8CC/L	8eee-X 8ee-X\	sło-	.
16r	(16gLL 16e-X/	-wo,	.
(16C/Jk	16c/JJ	.	.
16BB/LL	16gLL 16e-/	.	.
16C/	16c/	.	.
16D/	16g 16e-/	.	.
16C/JJ	16c/JJ	.	.
8CC/)	16g/LL	.	.
.	16e-/)	.	.
8r	(16ee- 16g/	ach	.
.	16e-/JJ	.	.
4r	16ddLL 16g/	prze-	.
.	16e-/	.	.
.	16cc 16g/	-bacz	.
.	16e-/JJ)	.	.
=36	=36	=36	=36
8.r	(16b-XLL 16g/	pa-	.
.	16d/	.	.
.	16b- 16g/	.	.
(16D\	16d/JJ	.	.
16E-X\LL	16ddLL 16b- 16g/	-ni	.
16D\	16d/	.	.
16C#X\	16dd 16b- 16g/	skwa-	.
16D\JJ	16d/JJ	.	.
8DD/)	16ccLL 16g/	-pli-	.
.	16d/)	.	.
8r	(16cc 16g/	.	.
.	16d/JJ	.	.
4r	16b-LL 16g/	-we	.
.	16d/	.	.
.	16b- 16g/	.	.
.	16d/JJ)	.	.
!!LO:LB:g=original
=37	=37	=37	=37
8.r	(16ccLL 16g/	sło-	.
.	16c/	.	.
.	16cc 16g/	.	.
(16E-X\	16c/JJ	.	.
16Fn\LL	16ccLL 16g/	.	.
16E-\	16c/	.	.
16D\	16cc 16g/	.	.
16E-\JJ	16c/JJ	.	.
8EE-X/)	16g/LL	-wo,	.
.	16c/)	.	.
8r	(16g/	tak	.
.	16c/JJ	.	.
4r	16g/LL	mi	.
.	16c/	.	.
.	16g/	zwąt-	.
.	16c/JJ)	.	.
=38	=38	=38	=38
*	*^	*	*
8.r	8a/L	16e-X\LL	-pie-	.
.	.	16c\	.	.
.	8cc/J	16e-\	-nie	.
(16F#X\	.	16c\JJ	.	.
16G\LL	2ee-X/	16ccLL 16a\	ser-	.
16F#\	.	16e-\	.	.
16E#X\	.	16cc 16a\	.	.
16F#\JJ	.	16e-\JJ	.	.
8FF#/)	.	16ccLL 16a\	.	.
.	.	16e-\	.	.
8r	.	16cc 16a\	.	.
.	.	16e-\JJ	.	.
4r	8dd/L	16dd\LL	-ce	.
.	.	16a\	.	.
.	8cc/J	16cc\	roz-	.
.	.	16a\JJ	.	.
*	*v	*v	*	*
!!LO:LB:g=original
=39	=39	=39	=39
*ped	*	*	*
[2G [2GG/	16ccLL 16g/	-dzie-	.
.	16d/	-ra.	.
.	16cc 16g/	.	.
.	16d/JJ	.	.
.	16b-XLL 16g/	.	.
.	16g/	.	.
.	16b-/	.	.
.	16dd/JJ	.	.
8G]L 8GG/]	16gg\LL	.	.
.	16b-\	.	.
8G 8GG/	16dd\	.	.
.	16gg\JJ	.	.
8D 8DD/	16bb-X\LL	.	.
.	16dd\	.	.
8BB-XJ 8BBB-X/	16gg\	.	.
.	16bb-\JJ	.	.
=40	=40	=40	=40
8GG 8GGG/	8ddd 8bb-X 8gg 8dd\	.	.
8r	8r	.	.
4r	4dd\	Co	.
(2G (2E-X\	(4.cc#X^\	my-	.
.	8g/	-śleć	.
=41	=41	=41	=41
8A 8D\))	8f#/L)	mam?	.
(8D\L	(16f#/L	.	.
.	16d/JJ	.	.
8E\	16g/LL	.	.
.	16d/	.	.
8E#X\J	16g#X/	.	.
.	16d/JJ	.	.
8F#\L)	8a/L)	.	.
(8F#\	(16a/L	.	.
.	16d/JJ	.	.
8G\	16b-X/LL	niewiem	.
.	16d/	.	.
8G#X\J	16bn/	.	.
.	16d/JJ	.	.
!!LO:LB:g=original
=42	=42	=42	=42
8A\L)	8cc/L)	.	.
(8F#\	(>16a/L	.	<
.	16d/JJ	.	.
8G\	16b-X/LL	.	.
.	16d/	.	.
8G#X\J	16bn/	.	.
.	16d/JJ	.	.
8A\L	16cc/LL	.	.
.	16d/	.	.
8B-X\)	16cc#X/	ach	.
.	16d/JJ	.	.
(8B-\	16dd/LL	powiedz,	.
.	16d/	.	.
8Bn\J	16dd#X/	.	.
.	16d/JJ	.	[[
=43	=43	=43	=43
*	*^	*	*
(<[1c [1A 1D)	4.ff#/)	2.f#\	błagam	sf
!	!LO:TX:i:b:t=rall.	!	!	!
.	8ee/	.	.	.
.	8dd/L	.	błagam	.
.	8cc/	.	.	.
.	8a/	4ryy	.	.
.	8f#/J	.	bądź	.
=44	=44	=44	=44	=44
4c] 4A] 4F#\)	4e/	2.ryy	szcze-	.
4r	4d/	.	-rą.	.
4r	8.r	.	.	.
.	16d/	.	.	.
!	!LO:TX:i:b:t=a tempo	!	!	!
(4G#X (4BB\	(8.dd^/L	(4fn\	.	.
.	32cc/LL	.	.	.
.	32b/JJJ	.	.	.
!!LO:LB:g=original
=45	=45	=45	=45	=45
8A 8C\))	8a/)	8e\)	.	.
8r	8ryy	16r	.	.
.	.	[<16gn\	.	.
(4A#X (4C#X\	(8.gg/L	4g\_	.	.
.	32ff#/LL	.	.	.
.	32ee/JJJ	.	.	.
8B 8D\))	8dd/)	8g\]	.	.
8r	16r	8ryy	.	.
.	16ee/KL	.	.	.
4An 4D\	8f# 8cn/	4ryy	.	.
.	16r	.	.	.
.	16dd/Jk	.	Hra:	.
*	*v	*v	*	*
=46	=46	=46	=46
!	!	!	!LO:DY:b
(16GG\LL	4g 4B/	Donc	p
16D\	.	.	.
16G\	.	.	.
16D\JJ	.	.	.
8G\L)	8r	.	.
8D\J	8d 8B/	.	.
(16GG\LL	8eL 8B/	mó-	.
16D\	.	.	.
16G\	8d 8B/	.	.
16D\JJ	.	.	.
8G\L)	8c#X 8B/	-wię	.
8D\J	8dJ 8B/	.	.
=47	=47	=47	=47
*	*^	*	*
(16GG\LL	4.b/	16b\LL	szcze-	.
16D\	.	16d\	.	.
16G\	.	16B\	.	.
16D\JJ	.	16d\JJ	.	.
8G\L)	.	8g\	.	.
8D\J	8b/	8g 8d\	-rze	.
(16GG\LL	8ccL 8g 8d/	2ryy	i	.
16D\	.	.	.	.
16G\	8b 8g 8d/	.	my-	.
16D\JJ	.	.	.	.
8G\L)	8a#X 8g 8d/	.	-ślę	.
8D\J	8bJ 8g 8d/	.	.	.
!!LO:LB:g=original
=48	=48	=48	=48	=48
(16GG\LL	4.dd/	16dd\LL	szcze-	.
16D\	.	16f#\	.	.
16A\	.	16c\	.	.
16D\JJ	.	16f#\JJ	.	.
8A'\L)	.	8an\	.	.
8D\J	8dd/	8cc 8f#\	-rze,	.
(16GG\LL	8eeL 8cc 8f#'/	2ryy	zwąt-	.
16D\	.	.	.	.
16A\	8dd 8cc 8f#'/	.	.	.
16D\JJ	.	.	.	.
8A'\L)	8cc#X 8f#'/	.	-pie-	.
8D\J	8ddJ 8ccn 8f#'/	.	-nie	.
=49	=49	=49	=49	=49
(16GG\LL	4.ff#/	16ff#\LL	pra-	.
16D\	.	16cc\	.	.
16A\	.	16f#\	.	.
16D\JJ	.	16cc\JJ	.	.
8A'\L)	.	8dd\	.	.
8D\J	8dd 8cc 8f#'/	8ryy	-wych	.
(16GG\LL	8eeL 8cc 8g'\	4ryy	u-	.
16D\	.	.	.	.
16A\	8ff# 8cc 8a'\	.	.	.
16D\JJ	.	.	.	.
8A'\L)	8gg 8cc 8a'\	4ryy	-czuć	.
8D\J	8aaJ 8ff# 8cc'\	.	nie	.
*	*v	*v	*	*
=50	=50	=50	=50
(16GG\LL	4aa#X 4gg 4ee 4cc#X\	chwie-	.
16D\	.	.	.
16G\	.	.	.
16D\JJ	.	.	.
8G'\L)	8bb 8gg 8dd\	-je,	.
8D\J	8d 8B/	i	.
(16GG\LL	8eL 8B/	trze-	.
16D\	.	.	.
16G\	8d 8B/	.	.
16D\JJ	.	.	.
8G'\L)	8c#X 8B/	-ba	.
8D\J	8dJ 8B/	.	.
!!LO:LB:g=original
=51	=51	=51	=51
*	*^	*	*
(16GG\LL	4.b/	16b\LL	wie-	.
16D\	.	16d\	.	.
16G\	.	16B\	.	.
16D\JJ	.	16d\JJ	.	.
8G'\L)	.	8g\	.	.
8D\J	8b/	8g 8d\	-rzyć	.
(16GG\LL	8ccL 8g 8d/	2ryy	ja-	.
16D\	.	.	.	.
16G\	8b 8g 8d/	.	.	.
16D\JJ	.	.	.	.
8G'\L)	8a#X 8g 8d/	.	-ko	.
8D\J	8bJ 8g 8d/	.	ja	.
=52	=52	=52	=52	=52
(16GG\LL	4.dd/	16dd\LL	wie-	.
16D\	.	16f#\	.	.
16A\	.	16c\	.	.
16D\JJ	.	16f#\JJ	.	.
8A'\L)	.	8an\	.	.
8D\J	8dd 8cc 8f#/	8ryy	-rzę,	.
(16GG\LL	8eeL 8cc 8f#'/	4ryy	w tę-	.
16D\	.	.	.	.
16A\	8dd 8cc 8f#'/	.	.	.
16D\JJ	.	.	.	.
8A'\L)	8cc#X 8f#'/	4ryy	-czę	.
8D\J	8ddJ 8ccn 8f#'/	.	przy-	.
=53	=53	=53	=53	=53
(16GG\LL	4.ff#/	16ff#\LL	-szłoś-	.
16D\	.	16cc\	.	.
16A\	.	16f#\	.	.
16D\JJ	.	16cc\JJ	.	.
8A'\L)	.	8dd\	.	.
8D\J	8dd 8cc 8f#/	8ryy	-ci	.
(16GG\LL	8ee-XL 8cc 8g'\	4ryy	w jas-	.
16D\	.	.	.	.
16A\	8een 8cc 8g#X'\	.	.	.
16D\JJ	.	.	.	.
8A'\L)	8ffn 8cc 8a'\	4ryy	-ną	.
8D\J	8ff#XJ 8cc 8a'\	.	na-	.
!!LO:LB:g=original
=54	=54	=54	=54	=54
*ped	*	*	*	*
8GG/	1gg	8b 8g\	-dzieję.	.
16BLL 16G\	.	8g\L	Kaz:	.
16d\JJ	.	.	.	.
16BLL 16G\	.	8g\	Na	.
16d\	.	.	.	.
*Xped	*	*	*	*
16B 16G\	.	8g\J	ten	.
16d\JJ	.	.	.	.
16BLL 16G\	.	8a\L	roz-	.
16d\	.	.	.	.
16B 16G\	.	8b\	-kaz	.
16d\JJ	.	.	.	.
16BLL 16G\	.	8cc\	wie-	.
16d\	.	.	.	.
16B 16G\	.	8dd\J	-rzę	.
16d\JJ	.	.	.	.
=55	=55	=55	=55	=55
16BB\LL	(8gg^/L	4dd#X 4a\	wie-	.
16B\	.	.	.	.
16A\	8ff#/J	.	.	.
16B\JJ	.	.	.	.
16D#X\LL	4b/)	4ryy	-szę.	.
16B\	.	.	.	.
16BB\	.	.	.	.
16B\JJ	.	.	.	.
16BB#X\LL	(8a#X/L	4ryy	Pa-	.
16Bn\	.	.	.	.
16C\	8b/	.	.	.
16B\JJ	.	.	.	.
.	8qqddn/	.	.	.
16Dn\LL	8ccn/	4ryy	.	.
16B\	.	.	.	.
16D#X\	8b/J)	.	-ni	.
16B\JJ	.	.	.	.
!!LO:PB:g=original
=56	=56	=56	=56	=56
16E\LL	(8g#X/L	4r	wierzę!	.
16B\	.	.	.	.
16G#X\	8b/J	.	.	.
16B\JJ	.	.	.	.
16E\LL	2.ee/)	8r	moich	.
16B\	.	.	.	.
16G#\	.	8e\	.	.
16B\JJ	.	.	.	.
16E\LL	.	8f#\L	u-	.
16B\	.	.	.	.
16G#\	.	8g#\	-czuć	.
16B\JJ	.	.	.	.
16E\LL	.	8a\	nie	.
16G#\	.	.	.	.
16B\	.	8b\J	ach	.
16G#\JJ	.	.	.	.
=57	=57	=57	=57	=57
(16AA\LL	(8ff#/L	4.cc#X 4.gn\	nie	.
16A\	.	.	.	.
16E\	8ee/J	.	.	.
16C#X\JJ	.	.	.	.
16AA\LL	8a/)	.	.	.
16A\	.	.	.	.
16AA\	8ee 8g\	8ryy	już	.
16A\JJ)	.	.	.	.
(16DD/LL	(4.dd 4.d/	8f#\L	nie	.
16D/	.	.	.	.
16EE/	.	8g\	.	.
16E/JJ	.	.	.	.
16EE#X/LL	.	8g#X\	.	.
16E#X/	.	.	.	.
16FF#/	8ccn/	8a\J	za-	.
16F#/JJ)	.	.	.	.
!!LO:LB:g=original
=58	=58	=58	=58	=58
(16GG\LL	4b/)	(16gn\LL	-chwieje	.
16D\	.	16d\	.	.
16G\	.	16B\	.	.
16D\JJ	.	16d\JJ	.	.
8G\L)	8r	8g\)	.	.
8D\J	8b 8g 8d'/	8ryy	Hra:...	.
(16GG\LL	8ccL 8g 8d'/	2ryy	.	.
16D\	.	.	.	.
16G\	8b 8g 8d'/	.	.	.
16D\JJ	.	.	.	.
8G\L)	8a#X 8g 8d'/	.	.	.
8D\J	8bJ 8g 8d'/	.	.	.
=59	=59	=59	=59	=59
(16GG\LL	4.dd/	(16an\LL	.	.
16D\	.	16f#\	.	.
16A\	.	16c\	.	.
16D\JJ	.	16f#\JJ	.	.
8A\L)	.	8a\)	.	.
8D\J	8dd/	8cc 8f#\	.	.
(16GG\LL	8ee/L	8ccL 8f#\	.	.
16D\	.	.	.	.
16A\	8dd/	8cc 8f#\	.	.
16D\JJ	.	.	.	.
8A\L)	8cc#X/	8ccn 8f#\	.	.
8D\J	8dd/J	8ccJ 8f#\	.	.
*	*v	*v	*	*
=60	=60	=60	=60
*tremolo	*	*	*
16GG/LL	4..gg 4..b 4..g\	Kaz:Wie-	.
16G/	.	.	.
16GG/	.	.	.
16G/	.	.	.
16GG/	.	.	.
16G/	.	.	.
16GG/	.	.	.
16G/JJ	(16ff# 16dd\	-rzę	.
16GG/LL	8eeL 8cc\)	.	.
16G/	.	.	.
16GG/	16r	.	.
16G/	(16ddK 16b\	dzię-	.
16GG/	8cc#X 8a#X\)	-ki	.
16G/	.	.	.
16GG/	16r	.	.
16G/JJ	16ccnJk 16an\	ci	.
*Xtremolo	*	*	*
!!LO:LB:g=original
=61	=61	=61	=61
8GG/	16bLL 16g/	za	.
.	16a/	.	.
8r	16b/	.	.
.	16cc/JJ	.	.
8A#X 8G 8C#X\	16cc#X\LL	tę	.
.	16dd\	.	.
8r	16ff#\	na-	.
.	16ee\JJ	.	.
8B 8G 8D\	(4.dd\	-dzie-	.
8r	.	.	.
8An 8F# 8D\	.	.	.
8r	8ccn\)	.	.
=62	=62	=62	=62
(16GG\LL	(16bLL 16g/	-ję.	.
16D\	16d/	.	.
16G\	16B/	.	.
16D\JJ	16d/JJ	.	.
8G\L)	8g/)	.	.
8D\J	8b 8g 8d'/	Hra:Wierz	.
(16GG\LL	8ccL 8g 8d'/	pan	.
16D\	.	.	.
16G\	8b 8g 8d'/	.	.
16D\JJ	.	.	.
8G\L)	8a#X 8g 8d'/	jak	.
8D\J	8bJ 8g 8d'/	ja	.
=63	=63	=63	=63
*	*^	*	*
(16GG\LL	4.ee/	16a\LL	wie-	.
16D\	.	16f#\	.	.
16A\	.	16c\	.	.
16D\JJ	.	16f#\JJ	.	.
8A\L)	.	8a\	.	.
8D\J	8dd/	8cc 8f#\	-rzę	.
(16GG\LL	8cc#X/L	8cc#L 8f#\	Kaz:Wie-	.
16D\	.	.	.	.
16A\	8dd/	8ccn 8f#\	.	.
16D\JJ	.	.	.	.
8A\L)	8ee/	8cc 8f#\	-rzę	.
8D\J	8ff#/J	8ccJ 8f#\	ci	.
*	*v	*v	*	*
!!LO:LB:g=original
=64	=64	=64	=64
*tremolo	*	*	*
16GG/LL	4..gg 4..b 4..g\	wie-	.
16G/	.	.	.
16GG/	.	.	.
16G/	.	.	.
16GG/	.	.	.
16G/	.	.	.
16GG/	.	.	.
16G/JJ	(16ff# 16dd\	-rzę	.
16GG/LL	8eeL 8cc\)	dzię-	.
16G/	.	.	.
16GG/	16r	.	.
16G/	(16ddK 16b\	.	.
16GG/	8cc#X 8a#X\)	-ki	.
16G/	.	.	.
16GG/	16r	.	.
16G/JJ	16ccnJk 16an\	ci	.
*Xtremolo	*	*	*
=65	=65	=65	=65
8GG/	16bLL 16g/	za	.
.	16a/	.	.
8r	16b/	.	.
.	16cc/JJ	.	.
8A#X 8G 8C#X\	16cc#X\LL	tę	.
.	16dd\	.	.
8r	16ff#\	na-	.
.	16ee\JJ	.	.
8B 8G 8D\	(4.dd\	-dzie-	.
8r	.	.	.
8An 8F# 8D\	.	.	.
8r	8ccn\)	.	.
=66	=66	=66	=66
8BL 8G\	8bL 8g/	-ję!	.
16BB\L	16b/L	.	.
16F#\JJ	16d#X/JJ	.	.
8BB'/L	8b'/L	.	.
16C/L	16b-X/L	.	.
16E/JJ	16e/JJ	.	.
8C'\L	8b-'/L	.	.
16C#X\L	16a/L	.	.
16G\JJ	16e/JJ	.	.
8C#'\L	8a'/L	.	.
16D\L	16a/L	.	.
16F#\JJ	16dn/JJ	.	.
!!LO:LB:g=original
=67	=67	=67	=67
8D'\L	8a'\L	.	.
16F#\L	16ee\L	.	.
16c\JJ	16a\JJ	.	.
8F#'\L	8ee'\L	.	.
16G\L	16dd\L	.	.
16B\JJ	16b\JJ	.	.
8G'\L	8dd'/L	.	.
16D#X\L	16cc/L	.	.
16A\JJ	16f#/JJ	.	.
8D#'\L	8cc'/L	.	.
16E\L	16b/L	.	.
16G\JJ	16g/JJ	.	.
=68	=68	=68	=68
8E'/L	8b'/L	.	.
16BB/L	16b/L	.	.
16F#/JJ	16d#X/JJ	.	.
8BB'/L	8b'/L	.	.
16C/L	16b-X/L	.	.
16E/JJ	16e/JJ	.	.
8C'\L	8b-'/L	.	.
16C#X\L	16a/L	.	.
16G\JJ	16d#/JJ	.	.
8C#'\L	8a'/L	.	.
16D\L	16a/L	.	.
16F#\JJ	16dn/JJ	.	.
=69	=69	=69	=69
8D'\L	8a'\L	.	.
16F#\L	16ee\L	.	.
16c\JJ	16a\JJ	.	.
8F#'\L	8ee'\L	.	.
16G\L	16dd\L	.	.
16B\JJ	16b\JJ	.	.
8G'\L	8dd'/L	.	.
16D#X\L	16cc/L	.	.
16A\JJ	16f#/JJ	.	.
8D#'\L	8cc'/L	.	.
16E\L	16b/L	.	.
16G#X\JJ	16g#X/JJ	.	.
!!LO:PB:g=original
=70	=70	=70	=70
8E/L	4.b 4.g#X/	.	fp
16EE/L	.	.	.
16E/JJ	.	.	.
16EE/LL	.	.	.
16E/	.	.	.
16EE/	8g# 8e/	.	.
16E/JJ	.	.	.
16EE/LL	8aL 8f#/	.	.
16E/	.	.	.
16EE/	8b 8g#/	.	.
16E/JJ	.	.	.
16EE/LL	8cc#X 8a/	.	.
16E/	.	.	.
16EE/	8dd#XJ 8a 8f#/	.	.
16E/JJ	.	.	.
=71	=71	=71	=71
*	*^	*	*
16EE/LL	4ee 4g#X 4e/	4ryy	.	.
16E/	.	.	.	.
16GG#X/	.	.	.	.
16E/JJ	.	.	.	.
16BB/LL	4gg#X 4g#^^\	4ryy	.	.
16E/	.	.	.	.
16EE/	.	.	.	.
16E/JJ	.	.	.	.
16AA\LL	8.ff#^^/L	4cc#X 4a\	.	.
16A\	.	.	.	.
16C#X\	.	.	.	.
16A\JJ	16ee/K	.	.	.
16E\LL	8cc#/	4ryy	.	.
16A\	.	.	.	.
16AA\	8a/J	.	.	.
16A\JJ	.	.	.	.
*	*v	*v	*	*
!!LO:LB:g=original
=72	=72	=72	=72
*^	*	*	*
4ryy	16E\LL	8g#X/L	.	.
.	16B\	.	.	.
.	16e\	8cc#X/	.	.
.	16B\JJ	.	.	.
8ryy	16e\LL	8b/J	.	.
.	16E\	.	.	.
8e/	16e\	8g#/	.	<
.	16E\JJ	.	.	.
8d#/L	16d#X\LL	8aL 8f#/	.	.
.	16E\	.	.	.
8c#/	16c#X\	8b 8g#/	.	.
.	16E\JJ	.	.	.
8B/	16B\LL	8cc# 8a/	.	.
.	16E\	.	.	.
8A/J	16A\	8dd#XJ 8b 8f#/	.	[[
.	16E\JJ	.	.	.
*v	*v	*	*	*
=73	=73	=73	=73
16G#X/LL	4ee 4b 4e/	.	.
16E/	.	.	.
16EE/	.	.	.
16E/JJ	.	.	.
16BB/LL	4gg#X 4g#X^\	.	.
16E/	.	.	.
16EE/	.	.	.
16E/JJ	.	.	.
16AA\LL	8.ff#L 8.f#/	.	.
16A\	.	.	.
16C#X\	.	.	.
16A\JJ	16eeJk 16e/	.	.
16E\LL	8cc#XL 8e/	.	.
16A\	.	.	.
16AA\	8a/J	.	.
16A\JJ	.	.	.
!!LO:LB:g=original
=74	=74	=74	=74
*	*^	*	*
16E\LL	4g#X/	2e\	.	.
16B\	.	.	.	.
16G#X\	.	.	.	.
16B\JJ	.	.	.	.
!	!	!	!	!LO:HP:b:t=cre-scen-do:ext2=cd
16E\LL	4b/	.	.	<
16B\	.	.	.	.
16G#\	.	.	.	.
16B\JJ	.	.	.	.
16C\LL	[2ee [>2gn [2e/	2ryy	.	.
16A#X\	.	.	.	.
16Gn\	.	.	.	.
16A#\JJ	.	.	.	.
16C\LL	.	.	.	.
16A#\	.	.	.	.
16G\	.	.	.	.
16A#\JJ	.	.	.	.
*	*v	*v	*	*
=75	=75	=75	=75
16D\LL	8ee]L 8g] 8e/]	.	.
16B\	.	.	.
16G\	8dd 8d'~/	.	.
16B\JJ	.	.	.
16D\LL	8cc#X 8c#X'~/	.	.
16B\	.	.	.
16G\	8ddJ 8d'~/	.	.
16B\JJ	.	.	.
16Cn\LL	4.ff# 4.f#^^\	.	.
16A\	.	.	.
16D\	.	.	.
16A\JJ	.	.	.
16C\LL	.	.	.
16A\	.	.	.
16D\	8dd 8d/	.	[[
16A\JJ	.	.	.
!!LO:LB:g=original
=76	=76	=76	=76
*	*^	*	*
8G 8D 8BB'\	[1gg^^	8g\	.	f
8B'\L	.	8g\L	.	.
8c'\	.	8a 8g\	.	.
8c#X'\J	.	8a#XJ 8g\	.	.
8d'\L	.	8bL 8g\	.	.
8fn'\	.	8dd 8g\	.	.
8e'\	.	8cc#X 8g\	.	.
8e-X'\J	.	8ccnJ 8g\	.	.
=77	=77	=77	=77	=77
8d\L	8gg/]	8b 8g\	.	.
!	!LO:TX:i:a:t=rallent.	!	!	!
8B'~\	8b'~/L	8ryy	.	.
8d'~\	8dd'~/	4ryy	.	.
8G'~\J	8g'~/J	.	.	.
4r	4.b;/	4d^\	.	.
4F# 4DD;/	.	4c;\	.	.
.	8a/	.	.	.
*	*v	*v	*	*
=78	=78	=78	=78
!	!LO:TX:i:a:t=a tempo	!	!
8G 8GG/	4g 4d 4B/	.	f
16BLL 16G\	.	.	.
16d\JJ	.	.	.
16BLL 16G\	8r	.	.
16d\	.	.	.
16B 16G\	(16dd\LL	.	.
16d\JJ	16gg\JJ	.	.
16BLL 16G\	16bb\LL	.	.
16d\	16aa\	.	.
16B 16G\	16gg\	.	.
16d\JJ	16bb\JJ	.	.
16BLL 16G\	16ddd\LL	.	.
16d\	16ccc\	.	.
16B 16G\	16bb\	.	.
16d\JJ	16ddd\JJ	.	.
!!LO:LB:g=original
=79	=79	=79	=79
8B 8G\	8ggg\L)	.	.
8r	(16bb\L	.	.
.	16ddd\JJ	.	.
8G 8D 8BB 8GG/	8gg'\L)	.	.
8r	(16gg\L	.	.
.	16bb\JJ	.	.
8G 8D 8BB 8GG/	8dd'\L)	.	.
8r	(16dd\L	.	.
.	16gg\JJ	.	.
8G 8D 8BB 8GG/	8b'\L)	.	.
8r	(16b\L	.	.
.	16dd\JJ)	.	.
=80	=80	=80	=80
8FnL 8FFn^^\	8g^^\L	.	sf
8dJ 8B 8G 8F^^\	8ggJ 8dd 8b 8g^^\	.	.
8r	8r	.	.
(16G\LL	(16g/LL	.	.
16A\JJ	16a/JJ	.	.
16B\LL	16b\LL	.	.
16A\	16a\	.	.
16B\	16b\	.	.
16c\JJ	16cc\JJ	.	.
8d'\L)	16dd\LL	.	.
.	16ee\	.	.
8F'\J	16ffn\	.	.
.	16ff#X\JJ)	.	.
=81	=81	=81	=81
8EL 8EE^^\	8gg^^\L	.	.
8eJ 8c 8G 8E^^\	8cccJ 8gg 8cc^^\	.	.
8r	8r	.	.
(16e>\LL	(16ee/LL	.	.
16fn>\JJ	16ffn/JJ	.	.
16a>\LL	16aa/LL	.	.
16g>\)	16gg/)	.	.
(16c>\	(16cc/	.	.
16d>\JJ	16dd/JJ	.	.
!LO:TX:t=P:problem:mixed beam	!	!	!
16f>\LL	16ff/LL	.	.
16e>\	16ee/	.	.
16c/	16cc/	.	.
16G/JJ)	16g/JJ)	.	.
!!LO:PB:g=original
=82	=82	=82	=82
16E\LL	16e/LL	.	.
16G\	16g/	.	.
16c\	16cc/	.	.
16B\JJ	16b/JJ	.	.
16A\LL	16a/LL	.	.
16G\	16g/	.	.
16e\	16ee/	.	.
16d\JJ	16dd/JJ	.	.
16c>\LL	16cc/LL	.	.
16e>\	16ee/	.	.
16g>\	16gg/	.	.
16fn>\JJ	16ffn/JJ	.	.
16e>\LL	16ee/LL	.	.
16g>\	16gg/	.	.
16cc>\	16ccc/	.	.
16ee>\JJ	16eee/JJ	.	.
=83	=83	=83	=83
8gg>\	8ggg/	Dz: Ach	pp
8gL 8B 8G'\	8gggL 8eee 8gg'\	chère Comtesse! jest suknia przecie!	.
8g 8c 8A'\	8fff#X 8ddd#X 8gg'\	.	.
8gJ 8d 8B'\	8fffnJ 8dddn 8gg'\	.	.
8gL 8e 8c'\	8eeeL 8ccc 8gg'\	.	.
8g 8fn 8d'\	8ddd 8bb 8gg'\	.	.
8g 8e'\	8ccc 8gg'\	.	.
8f'\J	8aaJ 8ffn 8cc'\	.	.
=84	=84	=84	=84
8g\	8gg 8ee 8cc\	.	.
8r	(16ee\LL	.	.
.	16eee\JJ	.	.
*clefG2	*	*	*
8cc/ 8a/	8cccL 8aa'\)	.	.
8r	(16cc\L	.	.
.	16ccc\JJ	.	.
8cc 8d/	8aaL 8ffn'\)	.	.
8r	(16a\L	.	.
.	16ff\JJ	.	.
*clefF4	*	*	*
8G 8GG/	8ddL 8b'\)	.	.
8r	(16g\L	.	.
.	16gg\JJ)	.	.
!!LO:LB:g=original
=85||	=85||	=85||	=85||
*k[]	*k[]	*	*
8C 8CC'/	4cc\	Ta	.
(8G\L	.	.	.
8e 8c\	8cc\L	La-	.
8G\J	8cc\J	-za-	.
8eL 8c\	4ee\	-ro-	.
8G\	.	.	.
8e 8c\	8g/L	-wicz	.
8G\J)	8g/J	mis-	.
=86	=86	=86	=86
8C'/	4.cc\	-trzy-	.
(8G\L	.	.	.
8e 8c\	.	.	.
8G\J	16b/LL	-nią	.
.	16a/JJ	.	.
8eL 8c\	4g/	ca-	.
8G\	.	.	.
8e 8c\	8g/	-łą,	.
8G\J)	8r	.	.
=87	=87	=87	=87
*^	*^	*	*
2ryy	8GG'/	8.dd\L	2ryy	je 	.
.	(<8BL 8G\	.	.	.	.
.	.	16dd\K	.	vous	.
.	8c 8A\	8cc\	.	jure,	.
.	8dJ 8B\	8b\J	.	że	.
4d/	8c\L	4a/	2f\	od-	.
.	8G\	.	.	.	.
4d/	8B\	8g/	.	-kąd	.
.	8G\J)	8r	.	.	.
=88	=88	=88	=88	=88	=88
2ryy	8GG'/	4dd\	2ryy	by-	.
.	(<8BL 8G\	.	.	.	.
.	8c 8A\	8.cc\L	.	-wam	.
.	8dJ 8B\	.	.	.	.
.	.	16b\Jk	.	w so-	.
4d/	8c\L	4a/	2f\	-sje-	.
.	8G\	.	.	.	.
4d/	8B\	8g/	.	-cie	.
.	8G\J)	8r	.	.	.
*v	*v	*	*	*	*
*	*v	*v	*	*
!!LO:LB:g=original
=89	=89	=89	=89
8C/	8.cc\L	nic	.
(8G\L	.	.	.
.	16cc\Jk	się	.
8e 8c\	8b\L	po-	.
8G\J	8cc\J	-do-	.
8eL 8c\	4.ee\	-bne-	.
8G\	.	.	.
8e 8c\	.	.	.
8G\J)	8cc\	-go	.
=90	=90	=90	=90
8C/	8.g/L	jesz-	.
8G\L	.	.	.
.	16g/Jk	-cze	.
8e 8c\	8a/L	nie	.
8G\J	8b/J	wi-	.
8eL 8c\	4cc\	-dzia-	.
8G\	.	.	.
8B-X 8E\	4cc#X\	-ło.	.
8G\J	.	.	.
=91	=91	=91	=91
*^	*	*	*
8F/L	4F\	4dd\	Lecz	.
8d 8A/	.	.	.	.
8F#/	4F#X\	8.dd#X\L	po	.
8cJ 8A/	.	.	.	.
.	.	16dd#\Jk	co	.
[4e [4c/	8G\L	4ee\	trwo-	.
.	8G#X\	.	.	.
8e] 8c/]	8A\	8.cc\L	-nić	.
8r	8C\J	.	.	.
.	.	16a\Jk	wy-	.
*v	*v	*	*	*
=92	=92	=92	=92
8c 8A 8D\	8f#X/	-ra-	.
16e\LL	16ee\LL	-zy?	f
16d\JJ	16dd\JJ	.	.
16d\LL	16dd/LL	.	.
16c\	16cc/	.	.
16A\	16a/	.	.
16F#X\JJ	16f#X/JJ	.	.
8D'\	8d'/	.	.
8r	8dd/L	Co	mf
4r	8g/	to	.
.	8a/J	za	.
!!LO:LB:g=original
=93	=93	=93	=93
*	*^	*	*
4r	4b/	8r	fałdy!	.
.	.	8ddL 8d\	.	pp
8BB'\L	4r	8g 8c#X\	.	.
8E'\	.	8aJ 8f#X 8cn\	.	.
8D'\J	8r	8b 8g 8B\	.	.
8G'\	8dd/L	8ryy	co	mf
8r	8g/	4ryy	za	.
8r	8a/J	.	tiu-	.
=94	=94	=94	=94	=94
8r	4b/	8r	-nika!	.
8BB'\L	.	8ddL 8d\	.	pp
8E'\	4r	8g 8c#X\	.	.
8D'\J	.	8aJ 8f#X 8cn\	.	.
8G'\	8r	8b 8g 8B\	.	.
8r	8dd/L	8ryy	to	mf
4r	8b/	4ryy	jak-	.
.	8g/J	.	-by	.
=95	=95	=95	=95	=95
8r	4cc/	8r	płoche	.
8E'\L	.	8ggL 8g\	.	pp
8A'\	4r	8cc 8f#X\	.	.
8G'\J	.	8ddJ 8b 8fn\	.	.
8c'\	8r	8ee 8cc 8e\	.	.
8r	8cc/L	8r	tchnie-	mf
4r	8a/	4r	-nie	.
.	8b/J	.	wiet-	.
=96	=96	=96	=96	=96
8r	4cc/	8r	-rzyka,	.
8E'\L	.	8ggL 8g\	.	pp
8A'\	4r	8cc 8f#X\	.	.
8G'\J	.	8ddJ 8b 8fn\	.	.
8c'\	8ee 8cc 8e'/	2ryy	jak-	.
8r	8ccL 8c'/	.	-by	<
4r	8dd 8d'/	.	.	.
.	8eeJ 8e'/	.	ma-	[
!!LO:LB:g=original
=97	=97	=97	=97	=97
8GG#X/	(4.ffn/	2b 2fn\	-rze-	.
(16BLL 16G#X\	.	.	.	.
16d\JJ	.	.	.	.
16BLL 16G#\	.	.	.	.
16d\	.	.	.	.
16B 16G#\	8ee/)	.	-nie	.
16d\JJ	.	.	.	.
16BLL 16G#\	(4dd/	2e\	z tiu-	.
16d\	.	.	.	.
16B 16G#\	.	.	.	.
16d\JJ	.	.	.	.
16BLL 16G#\	8cc/L	.	-lu...	.
16d\	.	.	.	.
16B 16G#\	8b/J)	.	i	.
16d\JJ)	.	.	.	.
=98	=98	=98	=98	=98
16A\LL	(4dd/	2e\	gazy....	.
16c\	.	.	.	.
16A\	.	.	.	.
16c\JJ	.	.	.	.
16A\LL	4cc/)	.	.	.
16c\	.	.	.	.
16A\	.	.	.	.
16c\JJ	.	.	.	.
16CC/LL	8b/L	8f#XL 8e-X\	.	.
16C/	.	.	.	.
16CC/	8an/	8f# 8e-\	.	.
16C/JJ	.	.	.	.
16CC/LL	8b/	8f# 8e-\	.	.
16C/	.	.	.	.
16CC/	8cc/J	8f#J 8e-\	.	.
16C/JJ	.	.	.	.
=99	=99	=99	=99	=99
8BB/L	8dd/L	4d\	.	.
8GG/	8g/	.	.	.
8C/	8ee/	8gL 8en\	.	.
8AA/J	8cc/J	8gJ 8e\	.	.
4D/	4b 4g 4d/	2ryy	.	.
4D 4DD/	4a 4f 4c/	.	.	.
*	*v	*v	*	*
!!LO:PB:g=original
=100||	=100||	=100||	=100||
*k[f#]	*k[f#]	*	*
(16GG\LL	4g 4B/	.	.
16D\	.	.	.
16G\	.	.	.
16D\JJ	.	.	.
8G\L)	8r	.	.
8D\J	8d 8B/	.	.
(16GG\LL	8eL 8B/	.	.
16D\	.	.	.
16G\	8d 8B/	.	.
16D\JJ	.	.	.
8G\L)	8c#X 8B/	.	.
8D\J	8dJ 8B/	.	.
=101	=101	=101	=101
*	*^	*	*
(16GG\LL	4.b/	16b\LL	.	.
16D\	.	16d\	.	.
16G\	.	16B\	.	.
16D\JJ	.	16d\JJ	.	.
8G\L)	.	8g\	.	.
8D\J	8b/	8g 8d\	.	.
(16GG\LL	8ccL 8g 8d/	2ryy	.	.
16D\	.	.	.	.
16G\	8b 8g 8d/	.	.	.
16D\JJ	.	.	.	.
8G\L)	8a#X 8g 8d/	.	.	.
8D\J	8bJ 8g 8d/	.	.	.
=102	=102	=102	=102	=102
(16GG\LL	4.dd/	16dd\LL	.	.
16D\	.	16f#\	.	.
16A\	.	16c\	.	.
16D\JJ	.	16f#\JJ	.	.
8A\L)	.	8an\	.	.
8D\J	8dd/	8cc 8f#\	.	.
(16GG\LL	8eeL 8cc 8f#'/	2ryy	.	.
16D\	.	.	.	.
16A\	8dd 8cc 8f#'/	.	.	.
16D\JJ	.	.	.	.
8A\L)	8cc#X 8f#'/	.	.	.
8D\J	8ddJ 8ccn 8f#'/	.	.	.
!!LO:LB:g=original
=103	=103	=103	=103	=103
(16GG\LL	4.ff#/	16ff#\LL	.	.
16D\	.	16cc\	.	.
16A\	.	16f#\	.	.
16D\JJ	.	16cc\JJ	.	.
8A'\L)	.	8dd\	.	.
8D\J	8dd/	8cc 8f#\	.	.
(16GG\LL	8eeL 8cc 8g'\	2ryy	.	.
16D\	.	.	.	.
16A\	8ff# 8cc 8a'\	.	.	.
16D\JJ	.	.	.	.
8A'\L)	8gg 8cc 8a'\	.	.	.
8D\J	8aaJ 8ff# 8cc'\	.	.	.
*	*v	*v	*	*
=104	=104	=104	=104
(16GG\LL	(4aa#X 4gg (4cc#X\	.	.
16D\	.	.	.
16G\	.	.	.
16D\JJ	.	.	.
8G'\L)	8bb 8gg 8dd\))	.	.
8D\J	8d 8B/	.	.
(16GG\LL	8eL 8B/	.	.
16D\	.	.	.
16G\	8d 8B/	.	.
16D\JJ	.	.	.
8G'\L)	8c#X 8B/	.	.
8D\J	8dJ 8B/	.	.
=105	=105	=105	=105
*	*^	*	*
(16GG\LL	4.b/	16b\LL	.	.
16D\	.	16d\	.	.
16G\	.	16B\	.	.
16D\JJ	.	16d\JJ	.	.
8G'\L)	.	8g\	.	.
8D\J	8b 8g 8d/	8ryy	.	.
(16GG\LL	8ccL 8g 8d/	2ryy	.	.
16D\	.	.	.	.
16G\	8b 8g 8d/	.	.	.
16D\JJ	.	.	.	.
8G'\L)	8a#X 8g 8d/	.	.	.
8D\J	8bJ 8g 8d/	.	.	.
!!LO:LB:g=original
=106	=106	=106	=106	=106
(16GG\LL	4.dd/	16dd\LL	.	.
16D\	.	16f#\	.	.
16A\	.	16c\	.	.
16D\JJ	.	16f#\JJ	.	.
8A\L)	.	8an\	.	.
8AJ 8D 8GG^^\	8dd/	8cc 8f#\	.	.
(16GG\LL	8eeL 8cc 8f#'/	2ryy	.	.
16D\	.	.	.	.
16A\	8dd 8cc 8f#'/	.	.	.
16D\JJ	.	.	.	.
8A\L)	8cc#X 8f#'/	.	.	.
8AJ 8D 8GG^^\	8ddJ 8ccn 8f#'/	.	.	.
=107	=107	=107	=107	=107
(16GG\LL	4.ff#/	16ff#\LL	.	.
16D\	.	16cc\	.	.
16A\	.	16f#\	.	.
16D\JJ	.	16cc\JJ	.	.
8A\L)	.	8dd\	.	.
8AJ 8D 8GG\	8dd/	8cc 8f#\	.	.
(16GG\LL	8ee-XL 8cc 8g\	2ryy	.	.
16D\	.	.	.	.
16A\	8een 8cc 8g#X\	.	.	.
16D\JJ	.	.	.	.
8A\L)	8ffn 8cc 8a\	.	.	.
8AJ 8D 8GG^^\	8ff#XJ 8cc 8a\	.	.	.
=108	=108	=108	=108	=108
*ped	*	*	*	*
8GG/	1gg	8b 8g\	.	.
16BLL 16G\	.	8g\L	.	.
16d\JJ	.	.	.	.
16BLL 16G\	.	8g\	.	.
16d\	.	.	.	.
*Xped	*	*	*	*
16B 16G\	.	8g\J	.	<
16d\JJ	.	.	.	.
16BLL 16G\	.	8a\L	.	.
16d\	.	.	.	.
16B 16G\	.	8b\	.	.
16d\JJ	.	.	.	.
16BLL 16G\	.	8cc\	.	.
16d\	.	.	.	.
16B 16G\	.	8dd\J	.	[
16d\JJ	.	.	.	.
!!LO:LB:g=original
=109	=109	=109	=109	=109
16BB\LL	(8gg^/L	4dd#X 4a\	.	.
16B\	.	.	.	.
16A\	8ff#/J	.	.	.
16B\JJ	.	.	.	.
16D#X\LL	4.b/)	4ryy	.	.
16B\	.	.	.	.
16BB\	.	.	.	.
16B\JJ	.	.	.	.
16BB\LL	.	2ryy	.	.
16B\	.	.	.	.
16D#\	16ddn/LL	.	.	.
16B\JJ	16cc/J	.	.	.
16BB\LL	8b/	.	.	.
16B\	.	.	.	.
16D#\	8a/J	.	.	.
16B\JJ	.	.	.	.
=110	=110	=110	=110	=110
16E\LL	(>8g#X/L	4r	.	.
16B\	.	.	.	.
16G#X\	8b/J	.	.	.
16B\JJ	.	.	.	.
16E\LL	2.ee/)	8r	.	.
16B\	.	.	.	.
16G#\	.	8e\	.	.
16B\JJ	.	.	.	.
16E\LL	.	8f#\L	.	.
16B\	.	.	.	.
16G#\	.	8g#\	.	.
16B\JJ	.	.	.	.
16E\LL	.	8a\	.	.
16B\	.	.	.	.
16G#\	.	8b\J	.	.
16B\JJ	.	.	.	.
!!LO:LB:g=original
=111	=111	=111	=111	=111
(16AA\LL	(8ff#^/L	4.cc#X 4.gn\	.	.
16A\	.	.	.	.
16E\	8ee/J	.	.	.
16C#X\JJ	.	.	.	.
16AA\LL	4a/)	.	.	.
16A\	.	.	.	.
16AA\	.	8ee 8g\	.	.
16A\JJ)	.	.	.	.
(16DD/LL	(4.dd 4.d/	8f#\L	.	.
16D/	.	.	.	.
16EE/	.	8g\	.	.
16E/JJ	.	.	.	.
16EE#X/LL	.	8g#X\	.	.
16E#X/	.	.	.	.
16FF#/	8ccn/	8a\J	.	.
16F#/JJ)	.	.	.	.
=112	=112	=112	=112	=112
(16GG\LL	4b/)	16gn\LL	.	.
16D\	.	16d\	.	.
16G\	.	16B\	.	.
16D\JJ	.	16d\JJ	.	.
8G\L)	8r	8g\	.	.
8GJ 8D\	8b 8g 8d/	8ryy	.	.
(16GG\LL	8ccL 8g 8d/	2ryy	.	.
16D\	.	.	.	.
16G\	8b 8g 8d/	.	.	.
16D\JJ	.	.	.	.
8G\L)	8a#X 8g 8d/	.	.	.
8GJ 8D\	8bJ 8g 8d/	.	.	.
=113	=113	=113	=113	=113
(16GG\LL	4.dd/	16an\LL	.	.
16D\	.	16f#\	.	.
16A\	.	16c\	.	.
16D\JJ	.	16f#\JJ	.	.
8A\L)	.	8a\	.	.
8AJ 8D\	8dd/	8cc 8f#\	.	.
(16GG\LL	8ee/L	8ccL 8f#\	.	.
16D\	.	.	.	.
16A\	8dd/	8cc 8f#\	.	.
16D\JJ	.	.	.	.
8A\L)	8cc#X/	8ccn 8f#\	.	.
8AJ 8D\	8dd/J	8ccJ 8f#\	.	.
*	*v	*v	*	*
!!LO:PB:g=original
=114	=114	=114	=114
*tremolo	*	*	*
16GG/LL	4..gg 4..b 4..g\	.	.
16G/	.	.	.
16GG/	.	.	.
16G/	.	.	.
16GG/	.	.	.
16G/	.	.	.
16GG/	.	.	.
16G/JJ	(16ff# 16dd\	.	.
16GG/LL	8eeL 8cc\)	.	.
16G/	.	.	.
16GG/	16r	.	.
16G/	(16ddK 16b\	.	.
16GG/	8cc#X 8a#X\)	.	.
16G/	.	.	.
16GG/	16r	.	.
16G/JJ	16ccnJk 16an\	.	.
*Xtremolo	*	*	*
=115	=115	=115	=115
8GG/	16bLL 16g/	.	.
.	16a/	.	.
8r	16b/	.	.
.	16cc/JJ	.	.
8A#X 8G 8C#X\	16cc#X\LL	.	.
.	16dd\	.	.
8r	16ff#\	.	.
.	16ee\JJ	.	.
8B 8G 8D\	4.dd\	.	.
8r	.	.	.
8An 8F# 8D\	.	.	.
8r	8ccn\	.	.
=116	=116	=116	=116
(16GG\LL	(16bLL 16g/	.	.
16D\	16d/	.	.
16G\	16B/	.	.
16D\JJ	16d/JJ	.	.
8G\L)	8g/)	.	.
8D\J	8b 8g 8d/	.	.
(16GG\LL	8ccL 8g 8d/	.	.
16D\	.	.	.
16G\	8b 8g 8d/	.	.
16D\JJ	.	.	.
8G\L)	8a#X 8g 8d/	.	.
8D\J	8bJ 8g 8d/	.	.
!!LO:LB:g=original
=117	=117	=117	=117
*	*^	*	*
(16GG\LL	4.ee/	16an\LL	.	.
16D\	.	16f#\	.	.
16A\	.	16c\	.	.
16D\JJ	.	16f#\JJ	.	.
8A\L)	.	8a\	.	.
8D\J	8dd/	8cc 8f#\	.	.
(16GG\LL	8cc#X/L	8cc#L 8f#\	.	.
16D\	.	.	.	.
16A\	8dd/	8ccn 8f#\	.	.
16D\JJ	.	.	.	.
8A\L)	8ee/	8cc 8f#\	.	.
8D\J	8ff#/J	8ccJ 8f#\	.	.
*	*v	*v	*	*
=118	=118	=118	=118
*tremolo	*	*	*
16GG/LL	4..gg 4..b 4..g\	.	sf
16G/	.	.	.
16GG/	.	.	.
16G/	.	.	.
16GG/	.	.	.
16G/	.	.	.
16GG/	.	.	.
16G/JJ	(16ff# 16dd\	.	.
16GG/LL	8eeL 8cc#X\)	.	.
16G/	.	.	.
16GG/	16r	.	.
16G/	16ddK 16b\	.	.
16GG/	8cc# 8a#X\	.	.
16G/	.	.	.
16GG/	16r	.	.
16G/JJ	16ccnJk 16an\	.	.
*Xtremolo	*	*	*
=119	=119	=119	=119
8GG/	16b\LL	.	.
.	16a\	.	.
8r	16b\	.	.
.	16cc\JJ	.	.
8A#X 8G 8C#X\	16cc#X\LL	.	.
.	16dd\	.	.
8r	16ff#\	.	.
.	16ee\JJ	.	.
8B 8G 8D\	4.dd\	.	.
8r	.	.	.
8An 8F# 8D\	.	.	.
8r	8ccn\	.	.
!!LO:LB:g=original
=120	=120	=120	=120
8BL 8G'\	8b'/L	.	.
16BB\L	16b/L	.	.
16F#\JJ	16d#X/JJ	.	.
8BB'\L	8b'/L	.	.
16C\L	16b-X/L	.	.
16E\JJ	16e/JJ	.	.
8C'\L	8b-'/L	.	.
16C#X\L	16a/L	.	.
16G\JJ	16e/JJ	.	.
8C#'\L	8a'/L	.	.
16D\L	16a/L	.	.
16F#\JJ	16dn/JJ	.	.
=121	=121	=121	=121
8D'\L	8a'\L	.	.
16F#\L	16ee\L	.	.
16c\JJ	16a\JJ	.	.
8F#'\L	8ee'\L	.	.
16G\L	16dd\L	.	.
16B\JJ	16b\JJ	.	.
8G'\L	8dd'/L	.	.
16D#X\L	16cc/L	.	.
16A\JJ	16f#/JJ	.	.
8D#'\L	8cc'/L	.	.
16E\L	16b/L	.	.
16G\JJ	16g/JJ	.	.
=122	=122	=122	=122
8E'\L	8b'/L	.	.
16BB\L	16b/L	.	.
16F#\JJ	16d#X/JJ	.	.
8BB'\L	8b'/L	.	.
16C\L	16b-X/L	.	.
16E\JJ	16e/JJ	.	.
8C'\L	8b-'/L	.	.
16C#X\L	16a/L	.	.
16G\JJ	16e/JJ	.	.
8C#'\L	8a'/L	.	.
16D\L	16a/L	.	.
16F#\JJ	16dn/JJ	.	.
!!LO:LB:g=original
=123	=123	=123	=123
8D'\L	8a'\L	.	.
16F#\L	16ee\L	.	.
16c\JJ	16a\JJ	.	.
8F#'\L	8ee'\L	.	.
16G\L	16dd\L	.	.
16B\JJ	16b\JJ	.	.
8G'\L	8dd'/L	.	.
16D#X\L	16cc/L	.	.
16A\JJ	16f#/JJ	.	.
8D#'\L	8cc'/L	.	.
16E\L	16b/L	.	.
16G#X\JJ	16g#X/JJ	.	.
=124	=124	=124	=124
8E/L	4.b 4.g#X/	.	fp
16EE/L	.	.	.
16E/JJ	.	.	.
16EE/LL	.	.	.
16E/	.	.	.
16EE/	8g# 8e/	.	<
16E/JJ	.	.	.
16EE/LL	8aL 8f#/	.	.
16E/	.	.	.
16EE/	8b 8g#/	.	.
16E/JJ	.	.	.
16EE/LL	8cc#X 8a/	.	.
16E/	.	.	.
16EE/	8dd#XJ 8a 8f#/	.	[[
16E/JJ	.	.	.
=125	=125	=125	=125
*	*^	*	*
16EE/LL	4ee 4g#X 4e/	2ryy	.	.
16E/	.	.	.	.
16GG#X/	.	.	.	.
16E/JJ	.	.	.	.
16BB/LL	4gg#X 4g#^^\	.	.	.
16E/	.	.	.	.
16EE/	.	.	.	.
16E/JJ	.	.	.	.
16AA\LL	8.ff#/L	4cc#X 4a\	.	>
16A\	.	.	.	.
16C#X\	.	.	.	.
16A\JJ	16ee/K	.	.	.
16E\LL	8cc#/	4ryy	.	.
16A\	.	.	.	.
16AA\	8a/J	.	.	]
16A\JJ	.	.	.	.
!!LO:LB:g=original
=126	=126	=126	=126	=126
*^	*	*	*	*
4ryy	16E\LL	8g#X/L	4g#\	.	.
.	16B\	.	.	.	.
.	16e\	8cc#X/	.	.	.
.	16B\JJ	.	.	.	.
8ryy	16e\LL	8b/J	4ryy	.	.
.	16E\	.	.	.	.
8e/	16e\	8g#/	.	.	<
.	16E\JJ	.	.	.	.
8d#/L	16d#X\LL	8aL 8f#/	2ryy	.	.
.	16E\	.	.	.	.
8c#/	16c#X\	8b 8g#/	.	.	.
.	16E\JJ	.	.	.	.
8B/	16B\LL	8cc# 8a/	.	.	.
.	16E\	.	.	.	.
8A/J	16A\	8dd#XJ 8b 8f#/	.	.	[
.	16E\JJ	.	.	.	.
*v	*v	*	*	*	*
*	*v	*v	*	*
=127	=127	=127	=127
16G#X/LL	4ee 4b 4e/	.	.
16E/	.	.	.
16EE/	.	.	.
16E/JJ	.	.	.
16BB/LL	4gg#X 4g#X^\	.	.
16E/	.	.	.
16EE/	.	.	.
16E/JJ	.	.	.
16AA\LL	8.ff#L 8.f#\	.	.
16A\	.	.	.
16C#X\	.	.	.
16A\JJ	16eeJk 16e\	.	.
16E\LL	8cc#XL 8e/	.	.
16A\	.	.	.
16AA\	8a/J	.	.
16A\JJ	.	.	.
=128	=128	=128	=128
*	*^	*	*
16E\LL	4g#X/	2e\	.	.
16B\	.	.	.	.
16G#X\	.	.	.	.
16B\JJ	.	.	.	.
!	!	!	!	!LO:HP:b:t=cre-scen-do:ext2=cd
16E\LL	4b/	.	.	<
16B\	.	.	.	.
16G#\	.	.	.	.
16B\JJ	.	.	.	.
16C#X\LL	[2ee [>2gn [2e/	2ryy	.	.
16A#X\	.	.	.	.
16Gn\	.	.	.	.
16A#\JJ	.	.	.	.
16C#\LL	.	.	.	.
16A#\	.	.	.	.
16G\	.	.	.	.
16A#\JJ	.	.	.	.
*	*v	*v	*	*
!!LO:PB:g=original
=129	=129	=129	=129
(16D\LL	8ee]L 8g] 8e/]	.	.
16B\	.	.	.
16G\	8dd 8d'~/	.	.
16B\JJ	.	.	.
16D\LL	8cc#X 8c#X'~/	.	.
16B\	.	.	.
16G\	8ddJ 8d'~/	.	.
16B\JJ)	.	.	.
(16Cn\LL	4.ff# 4.f#^^\	.	.
16A\	.	.	.
16D\	.	.	.
16A\JJ	.	.	.
16C\LL	.	.	.
16A\	.	.	.
16D\	8dd 8d/	.	[[
16A\JJ)	.	.	.
=130	=130	=130	=130
*	*^	*	*
8G 8D 8BB\	[1gg	8g\	.	f
8B'\L	.	8g\L	.	.
8c'\	.	8a 8g\	.	.
8c#X'\J	.	8a#XJ 8g\	.	.
8d'\L	.	8bL 8g\	.	.
8fn'\	.	8dd 8g\	.	.
8e'\	.	8cc#X 8g\	.	.
8e-X'\J	.	8ccnJ 8g\	.	.
=131	=131	=131	=131	=131
8d\	8gg/]	8b 8g\	.	.
!	!LO:TX:i:a:t=rall.	!	!	!
8B'~\L	8b'~/L	8ryy	.	.
8d'~\	8dd'~/	4ryy	.	.
8G'~\J	8g'~/J	.	.	.
[4D\	4.b;/	4f# 4d^<\	.	.
4D] 4DD^;/	.	4f# 4d 4c;\	.	.
.	8a/	.	.	.
*	*v	*v	*	*
!!LO:LB:g=original
=132	=132	=132	=132
8GG/	8g 8d 8B/	.	.
16c\LL	16eeLL 16cc\	.	mf
16e\JJ	16g\JJ	.	.
8c'\L	8eeL 8cc'\	.	.
16G\L	16ggL 16b\	.	.
16d\JJ	16g\JJ	.	.
8G'\L	8ggL 8b'\	.	.
16c\L	16eeL 16cc\	.	.
16e\JJ	16g\JJ	.	.
8c'\L	8eeL 8cc'\	.	.
16G\L	16ggL 16b\	.	.
16d\JJ	16g\JJ	.	.
=133	=133	=133	=133
8G'\L	8ggL 8b'\	.	.
16c\L	16eeL 16cc\	.	.
16e\JJ	16g\JJ	.	.
8c'\L	8eeL 8cc'\	.	.
16A\L	16cc\L	.	.
16e\JJ	16g\JJ	.	.
8A'\L	8cc'/L	.	.
16d\L	16a/L	.	.
16d\JJ	16f#/JJ	.	.
8d'\L	8a'/L	.	.
16G\L	16b/L	.	.
16d\JJ	16g/JJ	.	.
=134	=134	=134	=134
8G'\L	8b'\L	.	.
16c\L	16eeL 16cc\	.	.
16e\JJ	16g\JJ	.	.
8c'\L	8eeL 8cc 8g'\	.	.
16G\L	16ggL 16b\	.	.
16d\JJ	16g\JJ	.	.
8G'\L	8ggL 8b'\	.	.
16c\L	16eeL 16cc\	.	.
16e\JJ	16g\JJ	.	.
8c'\L	8eeL 8cc'\	.	.
16G\L	16ggL 16b\	.	.
16d\JJ	16g\JJ	.	.
!!LO:LB:g=original
=135	=135	=135	=135
8G'\L	8ggL 8b'\	.	.
16c\L	16eeL 16cc\	.	.
16e\JJ	16g\JJ	.	.
8c'\L	8eeL 8cc'\	.	.
16A\L	16cc\L	.	.
16e\JJ	16g\JJ	.	.
8A'\L	8cc'/L	.	.
16d\L	16a/L	.	.
16d\JJ	16f#/JJ	.	.
8d'\L	8a'/L	.	.
16G\L	16b/L	.	.
16d\JJ	16g/JJ	.	.
=136	=136	=136	=136
8G'\	8b 8g'/	.	.
(8dL 8B\	(8dd\L	.	.
8e 8A\)	8gg 8cc#X\)	.	.
8dJ 8D'\	8aaJ 8ff# 8ccn'\	.	.
8d 8G'\	8bb 8gg 8b'\	.	.
(8dL 8B\	(8dd\L	.	.
8e 8A\)	8gg 8cc#X\)	.	.
8dJ 8D'\	8aaJ 8ff# 8ccn'\	.	.
=137	=137	=137	=137
8d 8G\	8bb 8gg 8b\	.	.
(8dL 8B\	(8dd\L	.	.
8e 8A\)	8gg 8cc#X\)	.	.
8dJ 8D'\	8aaJ 8ff# 8ccn'\	.	.
8d 8G\	8bb 8gg 8b'\	.	.
8G\L	8ggL 8g\	.	f
8B\	8bb 8b\	.	.
8d\J	8dddJ 8dd\	.	.
!!LO:LB:g=original
=138	=138	=138	=138
16DLL 16BB 16GG/	8ggg 8gg\	.	.
16G/	.	.	.
16D 16BB 16GG/	16b\LL	.	.
16G/JJ	16cc\JJ	.	.
16DLL 16BB 16GG/	16dd\LL	.	.
16G/	16ee\	.	.
16D 16BB 16GG/	16ff#\	.	.
16G/JJ	16gg\JJ	.	.
.	8qqff#/	.	.
16GLL 16E 16C#X\	16ee\LL	.	.
16A#X\	16dd#X\	.	.
16G 16E 16C#\	16ee\	.	.
16A#\JJ	16ff#\JJ	.	.
16GLL 16E 16C#\	16gg\LL	.	.
16A#\	16ff#\	.	.
16G 16E 16C#\	16gg\	.	.
16A#\JJ	16aan\JJ	.	.
=139	=139	=139	=139
16BLL 16G 16D\	16bb\LL	.	.
16d\	16ddd\	.	.
16c\	16ccc\	.	.
16B\JJ	16bb\JJ	.	.
16A\LL	16aa\LL	.	.
16G\	16gg\	.	.
16F#\	16ff#\	.	.
16E\JJ	16ee\JJ	.	.
8D\	8dd\	.	.
8r	8r	.	.
4D 4DD;/	4ff# 4dd 4cc 4a;\	.	sf
=140	=140	=140	=140
!LO:TX:i:a:t=P:problem:mixed beam	!	!	!
8GGL 8GGG/	8ggL 8dd 8b 8g'\	.	ff
8g\J 8d\ 8B\ 8G^^\	8ggJ 8dd 8b^\	.	.
8r	8r	.	.
(16A\LL	(16bb\LL	.	.
16B\JJ	16ccc\JJ	.	.
16e^\LL	16eee^\LL	.	.
16d\)	16ddd\)	.	.
(16G\	(16gg\	.	.
16A\JJ	16aa\JJ	.	.
16c^\LL	16ccc^\LL	.	.
16B\	16bb\	.	.
16G\	16gg\	.	.
16D\JJ)	16dd\JJ)	.	.
!!LO:LB:g=original
=141	=141	=141	=141
(16BB\LL	(16b\LL	.	.
16D\	16dd\	.	.
16G\	16gg\	.	.
16F#\JJ	16ff#\JJ	.	.
16E\LL	16ee\LL	.	.
16G\	16gg\	.	.
16B\	16bb\	.	.
16A\JJ	16aa\JJ	.	.
16G\LL	16gg\LL	.	.
16B\	16bb\	.	.
16d\	16ddd\	.	.
16c\JJ	16ccc\JJ	.	.
*clefG2	*	*	*
16B/LL	16bb\LL	.	.
16d/	16ddd\	.	.
16g/	16ggg\	.	.
16b/JJ	16bbb\JJ	.	.
=142	=142	=142	=142
8dd\)	8dddd\)	.	.
*clefF4	*	*	*
8DL 8DD'/	8dddL 8ff# 8dd'\	.	f
8E 8EE'/	8ccc#X 8gg 8dd'\	.	.
8F#J 8FF#'/	8cccnJ 8aa 8dd'\	.	.
8GL 8GG'\	8bbL 8gg 8dd'\	.	.
8A 8AA'\	8aa 8ff# 8dd'\	.	.
8B 8BB'\	8gg 8dd'\	.	.
8cJ 8C'\	8eeJ 8cc 8g'\	.	.
=143	=143	=143	=143
8d 8D\	8dd 8b 8g'\	.	.
8r	(16dd\LL	.	.
.	16bb\JJ)	.	.
8B 8G 8E'\	8gg 8ee'\	.	.
8r	(16b\LL	.	.
.	16gg\JJ)	.	.
8A 8E 8C 8AA'\	8ee 8cc'\	.	.
8r	8r	.	.
8d 8A 8F# 8D'\	8ff# 8dd 8a 8f#'\	.	.
8r	8r	.	.
=144	=144	=144	=144
4G 4D 4BB 4GG/	4gg 4dd 4b 4g\	.	.
4r	4r	.	.
2r	2r	.	.
!!LO:TX:t=P:problem:po kresce zapisane znaki przykluczowe (kasowniki fn) i metrum (3/4) odnoszące się do następnej części
==	==	==	==
*-	*-	*-	*-
!!!system-decoration: {(p1)}
!!!ENC: Berenika Jozajtis
!!!END: 2022-08-20
!!!ENC: Kamil Watkowski
!!!END: 2022-09-27
!!!RDF**kern: > = above
!!!RDF**kern: < = below
!!!YEC: Copyright 2022 Narodowy Instytut Fryderyka Chopina (https://polishscores.org)
!!!YEM: License CC-BY-4.0 (https://creativecommons.org/licenses/by/4.0)
